src/images/single-assets/RACA.svg

<svg width="96" height="96" viewBox="0 0 96 96" fill="none" xmlns="http://www.w3.org/2000/svg">
<circle cx="48" cy="48" r="48" fill="#332C2B"/>
<path d="M58.2193 33.8339C54.8546 34.1768 51.6423 35.3322 48.8236 37.186C46.0175 39.0397 43.7067 41.5538 42.0942 44.4994C40.4817 47.4452 39.631 50.721 39.5929 54.0729C39.5676 56.7774 40.0881 59.4691 41.1038 61.9704C42.1323 64.4843 43.656 66.7572 45.5732 68.6871C46.9191 69.0046 48.2903 69.1822 49.6743 69.2077C47.4396 66.2492 46.3858 62.5798 46.6905 58.8978C46.9953 55.2157 48.6586 51.7748 51.3503 49.2099C54.0421 46.6578 57.5845 45.1596 61.3174 45.0072C65.0503 44.8549 68.707 46.0611 71.5893 48.3973C71.5893 43.1662 70.256 39.319 68.9991 36.8304C68.6943 36.2337 68.3769 35.6877 68.0721 35.2052C64.9614 33.9609 61.5714 33.4911 58.2193 33.8339Z" fill="#FCC33C"/>
<path d="M53.3566 69.9831C53.3692 69.9831 53.3946 69.9704 53.4074 69.9704C53.5598 69.9324 53.7121 69.8943 53.8645 69.8434C53.8264 69.8434 53.7883 69.8561 53.7374 69.8561C63.184 67.012 70.4086 60.2319 71.3735 52.2581C71.3735 52.1692 71.3862 52.0803 71.3989 51.9787C68.9103 50.0361 65.7995 49.0712 62.638 49.2616C59.4765 49.452 56.5053 50.7853 54.2708 53.0072C52.0361 55.2292 50.7156 58.1876 50.5506 61.3236C50.3855 64.4217 51.3632 67.469 53.3058 69.9068C52.3027 70.0211 51.3124 70.0972 50.3094 70.0845C44.7354 70.0211 39.39 67.8752 35.3523 64.0661C31.3146 60.2571 28.8768 55.0768 28.534 49.5663C28.1912 44.0558 29.9687 38.6215 33.5112 34.3426C37.0536 30.0764 42.0943 27.2957 47.6175 26.5594C47.2366 26.5594 46.8303 26.534 46.4113 26.534C40.9769 26.4832 33.2319 27.2578 27.0358 31.2192C22.4395 34.1394 18.9224 38.4691 17.0052 43.548C16.5736 44.7415 16.2434 45.9731 16.0149 47.2301C16.0149 47.4713 16.0149 47.7125 16.0022 47.9412C15.926 54.5944 17.8306 61.1333 21.4619 66.7326C23.8235 68.1293 30.4639 71.1639 43.5927 71.3163C46.8812 71.3543 50.1824 70.8971 53.3566 69.983L53.3566 69.9831Z" fill="#FCC33C"/>
<path d="M20.3192 36.7168C22.1095 34.406 24.2935 32.4252 26.7821 30.8508C27.709 30.2667 28.6739 29.7334 29.6769 29.2763C34.7429 26.7877 40.3042 26.1402 44.9767 26.1148C47.2749 26.064 49.573 26.1782 51.8712 26.4322C53.5598 26.5846 54.8042 26.7116 55.3501 26.6354C58.7148 26.191 61.5208 23.9691 61.5462 20.6043C61.5716 17.392 58.5878 14.8526 55.8707 14.3701C54.3343 14.1289 52.7726 14.0018 51.2109 14.0018C46.1067 13.951 37.9806 14.9414 30.5402 20.2868C18.5035 28.9335 16.472 40.6654 16.1292 44.7158C16.4847 43.5984 16.9164 42.5065 17.4242 41.4526C18.186 39.7514 19.1637 38.1642 20.3192 36.7168H20.3192Z" fill="#FCC33C"/>
<path d="M77.9633 43.4208C76.1222 40.6148 73.6845 38.2532 70.7896 36.5264C72.5291 40.107 73.9257 45.3762 73.0751 52.4611C72.4022 58.0605 68.9866 63.2661 63.4635 67.126C57.9403 70.9859 50.9315 73.0555 43.6561 72.992H43.5419C33.5874 72.8777 27.2391 71.1509 23.5442 69.6399C30.4512 78.5914 44.3799 84.7875 57.3816 81.7783C81.5567 76.1535 84.5278 53.5149 77.9634 43.4208H77.9633Z" fill="#FCC33C"/>
</svg>

<svg xmlns="http://www.w3.org/2000/svg" width="96" height="96" fill="none"><circle cx="48" cy="48" r="48" fill="#332C2B"/><path fill="#FCC33C" d="M58.22 33.834a20.95 20.95 0 0 0-9.396 3.352 20.66 20.66 0 0 0-6.73 7.313 20.4 20.4 0 0 0-2.501 9.574 20.5 20.5 0 0 0 1.51 7.897 20.6 20.6 0 0 0 4.47 6.717 19.4 19.4 0 0 0 4.101.52 15.04 15.04 0 0 1-2.983-10.31 15.1 15.1 0 0 1 4.66-9.687 15.4 15.4 0 0 1 9.966-4.203 15.32 15.32 0 0 1 10.272 3.39c0-5.23-1.333-9.078-2.59-11.567a21 21 0 0 0-.927-1.625 20.85 20.85 0 0 0-9.853-1.371"/><path fill="#FCC33C" d="M53.357 69.983c.012 0 .038-.013.05-.013.153-.038.305-.076.458-.127-.039 0-.077.013-.128.013 9.447-2.844 16.672-9.624 17.637-17.598 0-.089.012-.178.025-.28a12.96 12.96 0 0 0-8.761-2.716 12.96 12.96 0 0 0-8.367 3.745 12.678 12.678 0 0 0-.965 16.9c-1.003.114-1.994.19-2.997.178a22.16 22.16 0 0 1-14.957-6.019 21.8 21.8 0 0 1-6.818-14.5 21.75 21.75 0 0 1 4.977-15.223 22.14 22.14 0 0 1 14.106-7.784c-.38 0-.787-.025-1.206-.025-5.434-.05-13.18.724-19.375 4.685a25.12 25.12 0 0 0-10.03 12.329 23 23 0 0 0-.991 3.682c0 .241 0 .483-.013.711a33.84 33.84 0 0 0 5.46 18.792c2.361 1.396 9.002 4.43 22.13 4.583a34 34 0 0 0 9.765-1.333"/><path fill="#FCC33C" d="M20.32 36.717a25.2 25.2 0 0 1 6.462-5.866 24.5 24.5 0 0 1 2.895-1.575c5.066-2.488 10.627-3.136 15.3-3.161 2.298-.051 4.596.063 6.894.317 1.689.153 2.933.28 3.48.203 3.364-.444 6.17-2.666 6.195-6.03.026-3.213-2.958-5.752-5.675-6.235a30 30 0 0 0-4.66-.368c-5.104-.051-13.23.94-20.67 6.285-12.038 8.647-14.069 20.378-14.412 24.429.356-1.118.787-2.21 1.295-3.263a22 22 0 0 1 2.895-4.736M77.963 43.42a22.16 22.16 0 0 0-7.173-6.894c1.74 3.581 3.136 8.85 2.285 15.935-.673 5.6-4.088 10.805-9.611 14.665s-12.532 5.93-19.808 5.866h-.114c-9.955-.114-16.303-1.841-19.998-3.352 6.907 8.951 20.836 15.147 33.838 12.138 24.175-5.625 27.146-28.263 20.581-38.357"/></svg>
